svgs/light/chimney.svg

<svg xmlns="http://www.w3.org/2000/svg" viewBox="0 0 448 512"><!--! Font Awesome Pro 6.6.0 by @fontawesome - https://fontawesome.com License - https://fontawesome.com/license (Commercial License) Copyright 2024 Fonticons, Inc. --><path d="M32 64l384 0 0 64-16 0-224 0L48 128l-16 0 0-64zm0 96l0 112 0 128 0 64c0 8.8 7.2 16 16 16s16-7.2 16-16l0-48 96 0 0 48c0 8.8 7.2 16 16 16s16-7.2 16-16l0-48 80 0 112 0 0 48c0 8.8 7.2 16 16 16s16-7.2 16-16l0-64 0-128 0-112c17.7 0 32-14.3 32-32l0-64c0-17.7-14.3-32-32-32L32 32C14.3 32 0 46.3 0 64l0 64c0 17.7 14.3 32 32 32zm352 0l0 96-112 0-80 0 0-96 192 0zm-224 0l0 96-96 0 0-96 96 0zm16 224L64 384l0-96 112 0 80 0 0 96-80 0zm112 0l0-96 96 0 0 96-96 0z"/></svg>

<svg xmlns="http://www.w3.org/2000/svg" viewBox="0 0 448 512"><!--! Font Awesome Pro 6.4.0 by @fontawesome - https://fontawesome.com License - https://fontawesome.com/license (Commercial License) Copyright 2023 Fonticons, Inc. --><path d="M32 64H416v64H400 176 48 32V64zm0 96l0 112V400v64c0 8.8 7.2 16 16 16s16-7.2 16-16V416h96v48c0 8.8 7.2 16 16 16s16-7.2 16-16V416h80H384v48c0 8.8 7.2 16 16 16s16-7.2 16-16V400 272 160c17.7 0 32-14.3 32-32V64c0-17.7-14.3-32-32-32H32C14.3 32 0 46.3 0 64v64c0 17.7 14.3 32 32 32zm352 0v96H272 192V160H384zm-224 0v96H64V160h96zm16 224H64V288H176h80v96H176zm112 0V288h96v96H288z"/></svg>
